icons/crisis_response_center_person_fill.svg

<svg width="48" height="48" viewBox="0 0 48 48" fill="none" xmlns="http://www.w3.org/2000/svg">
<path fill-rule="evenodd" clip-rule="evenodd" d="M23 6H6V18H23V6ZM14.5 16C15.0523 16 15.5 15.5523 15.5 15C15.5 14.4477 15.0523 14 14.5 14C13.9477 14 13.5 14.4477 13.5 15C13.5 15.5523 13.9477 16 14.5 16ZM13.5 9C13.5 8.44772 13.9477 8 14.5 8C15.0523 8 15.5 8.44772 15.5 9V12C15.5 12.5523 15.0523 13 14.5 13C13.9477 13 13.5 12.5523 13.5 12V9Z" fill="black"/>
<path fill-rule="evenodd" clip-rule="evenodd" d="M42 6H25V18H42V6ZM40.2071 9.20711L34.5 14.9142L32 12.4142L29.7071 14.7071L28.2929 13.2929L32 9.58579L34.5 12.0858L38.7929 7.79289L40.2071 9.20711Z" fill="black"/>
<path fill-rule="evenodd" clip-rule="evenodd" d="M6 32V20H23V24.083C20.1623 24.559 18 27.027 18 30C18 30.7013 18.1203 31.3744 18.3414 32H6ZM9 25V23H11V25H9ZM9 27V29H11V27H9ZM13 25V23H15V25H13ZM13 27V29H15V27H13ZM17 25V23H19V25H17Z" fill="black"/>
<path fill-rule="evenodd" clip-rule="evenodd" d="M30 30C30 30.7013 29.8797 31.3744 29.6586 32H42V20H25V24.083C27.8377 24.559 30 27.027 30 30ZM32 25H39C39.5523 25 40 24.5523 40 24C40 23.4477 39.5523 23 39 23H32C31.4477 23 31 23.4477 31 24C31 24.5523 31.4477 25 32 25ZM32 28C32 28.5523 32.4477 29 33 29H39C39.5523 29 40 28.5523 40 28C40 27.4477 39.5523 27 39 27H33C32.4477 27 32 27.4477 32 28Z" fill="black"/>
<path d="M28 30C28 32.2091 26.2091 34 24 34C21.7909 34 20 32.2091 20 30C20 27.7909 21.7909 26 24 26C26.2091 26 28 27.7909 28 30Z" fill="black"/>
<path d="M24 35C22.7576 35 20.9281 35.1859 19.388 35.5599C18.6241 35.7453 17.8667 35.9921 17.277 36.3219C16.761 36.6106 16 37.1753 16 38.1212V42H32V38.1212C32 37.1753 31.239 36.6106 30.723 36.3219C30.1333 35.9921 29.3759 35.7453 28.612 35.5599C27.0719 35.1859 25.2424 35 24 35Z" fill="black"/>
</svg>

<svg
  xmlns="http://www.w3.org/2000/svg"
  width="24"
  height="24"
  viewBox="0 0 24 24"
  fill="none"
  stroke="currentColor"
  stroke-width="2"
  stroke-linecap="round"
  stroke-linejoin="round"
>
  <path
    fill-rule="evenodd"
    d="M23 6H6v12h17zm-8.5 10a1 1 0 1 0 0-2 1 1 0 0 0 0 2m-1-7a1 1 0 1 1 2 0v3a1 1 0 1 1-2 0z"
    clip-rule="evenodd"
  />
  <path
    fill-rule="evenodd"
    d="M42 6H25v12h17zm-1.793 3.207L34.5 14.914l-2.5-2.5-2.293 2.293-1.414-1.414L32 9.586l2.5 2.5 4.293-4.293z"
    clip-rule="evenodd"
  />
  <path
    fill-rule="evenodd"
    d="M6 32V20h17v4.083A6.002 6.002 0 0 0 18.341 32zm3-7v-2h2v2zm0 2v2h2v-2zm4-2v-2h2v2zm0 2v2h2v-2zm4-2v-2h2v2z"
    clip-rule="evenodd"
  />
  <path
    fill-rule="evenodd"
    d="M30 30a6 6 0 0 1-.341 2H42V20H25v4.083c2.838.476 5 2.944 5 5.917m2-5h7a1 1 0 1 0 0-2h-7a1 1 0 1 0 0 2m0 3a1 1 0 0 0 1 1h6a1 1 0 1 0 0-2h-6a1 1 0 0 0-1 1"
    clip-rule="evenodd"
  />
  <path d="M28 30a4 4 0 1 1-8 0 4 4 0 0 1 8 0" />
  <path d="M24 35a21.5 21.5 0 0 0-4.612.56c-.764.185-1.521.432-2.111.762-.516.289-1.277.853-1.277 1.8V42h16v-3.879c0-.946-.761-1.51-1.277-1.8-.59-.329-1.347-.576-2.111-.761A21.5 21.5 0 0 0 24 35" />
</svg>
